img/advantages/3-1.svg

<svg width="42" height="42" viewBox="0 0 42 42" fill="none" xmlns="http://www.w3.org/2000/svg">
<path d="M12.95 26.6H15.05V26.25C15.05 24.5933 15.6275 23.1875 16.7825 22.0325C17.9375 20.8775 19.3433 20.3 21 20.3C22.6567 20.3 24.0625 20.8775 25.2175 22.0325C26.3725 23.1875 26.95 24.5933 26.95 26.25V26.6H29.05V26.25C29.05 24.01 28.2683 22.1083 26.705 20.545C25.1417 18.9817 23.24 18.2 21 18.2C18.76 18.2 16.8583 18.9817 15.295 20.545C13.7317 22.1083 12.95 24.01 12.95 26.25V26.6ZM14.14 17.15C15.0967 17.01 16.1058 16.6367 17.1675 16.03C18.2292 15.4233 19.075 14.735 19.705 13.965L18.095 12.635C17.6283 13.195 16.9808 13.7083 16.1525 14.175C15.3242 14.6417 14.56 14.9333 13.86 15.05L14.14 17.15ZM27.86 17.15L28.14 15.05C27.44 14.9333 26.6758 14.6417 25.8475 14.175C25.0192 13.7083 24.3717 13.195 23.905 12.635L22.295 13.965C22.925 14.735 23.7708 15.4233 24.8325 16.03C25.8942 16.6367 26.9033 17.01 27.86 17.15ZM21 35C19.0633 35 17.2433 34.6325 15.54 33.8975C13.8367 33.1625 12.355 32.165 11.095 30.905C9.835 29.645 8.8375 28.1633 8.1025 26.46C7.3675 24.7567 7 22.9367 7 21C7 19.0633 7.3675 17.2433 8.1025 15.54C8.8375 13.8367 9.835 12.355 11.095 11.095C12.355 9.835 13.8367 8.8375 15.54 8.1025C17.2433 7.3675 19.0633 7 21 7C22.9367 7 24.7567 7.3675 26.46 8.1025C28.1633 8.8375 29.645 9.835 30.905 11.095C32.165 12.355 33.1625 13.8367 33.8975 15.54C34.6325 17.2433 35 19.0633 35 21C35 22.9367 34.6325 24.7567 33.8975 26.46C33.1625 28.1633 32.165 29.645 30.905 30.905C29.645 32.165 28.1633 33.1625 26.46 33.8975C24.7567 34.6325 22.9367 35 21 35Z" fill="#88889F"/>
</svg>

<svg width="42" height="42" fill="none" xmlns="http://www.w3.org/2000/svg"><path d="M12.95 26.6h2.1v-.35c0-1.657.577-3.063 1.732-4.218C17.938 20.878 19.343 20.3 21 20.3s3.063.578 4.218 1.732c1.154 1.155 1.732 2.561 1.732 4.218v.35h2.1v-.35c0-2.24-.782-4.142-2.345-5.705C25.142 18.982 23.24 18.2 21 18.2s-4.142.782-5.705 2.345c-1.563 1.563-2.345 3.465-2.345 5.705v.35Zm1.19-9.45c.957-.14 1.966-.513 3.027-1.12 1.062-.607 1.908-1.295 2.538-2.065l-1.61-1.33c-.467.56-1.114 1.073-1.942 1.54-.829.467-1.593.758-2.293.875l.28 2.1Zm13.72 0 .28-2.1c-.7-.117-1.464-.408-2.293-.875-.828-.467-1.475-.98-1.942-1.54l-1.61 1.33c.63.77 1.476 1.458 2.537 2.065 1.062.607 2.071.98 3.028 1.12ZM21 35c-1.937 0-3.757-.367-5.46-1.102a14.138 14.138 0 0 1-4.445-2.993 14.138 14.138 0 0 1-2.993-4.445C7.367 24.757 7 22.937 7 21c0-1.937.367-3.757 1.102-5.46a14.138 14.138 0 0 1 2.993-4.445 14.138 14.138 0 0 1 4.445-2.993C17.243 7.367 19.063 7 21 7c1.937 0 3.757.367 5.46 1.102a14.138 14.138 0 0 1 4.445 2.993 14.138 14.138 0 0 1 2.992 4.445C34.633 17.243 35 19.063 35 21c0 1.937-.367 3.757-1.102 5.46a14.138 14.138 0 0 1-2.993 4.445 14.138 14.138 0 0 1-4.445 2.992C24.757 34.633 22.937 35 21 35Z" fill="#88889F"/></svg>
